X: 1
T: Blessings Of Gold
M: 4/4
L: 1/8
R: reel
K: Bmin
|: dB | A2 AFAB dc | B3A B2 de | fafe d2 BA | FABd efdB |
A2 AFAB dc | B3A B2 de | faba f2 ed | BA (3Bcd e2 :|
|: de | fa a2 bafe | faaf d3e | fa a2 bafe | dBBA B2 de |
fa a2 bafe | faba f2 ed | BA (3Bcd efed | BA (3Bcd ef :|
